X: 2338
T: WHIPPLE'S HORNPIPE
%R: hornpipe, reel
B: James Kerr "Merry Melodies" v.2 p.37 #338
Z: 2016 John Chambers <jc:trillian.mit.edu>
M: C
L: 1/8
K: Bb
uF2 |\
(vFB)BB (uBd)fg | fdbf gfdf |\
(gf)dB (cB)GA | BdcB G2F2 |\
(FB)BB (Bd)fg | gfbf gfdf |\
(gf)dB (cB)GB | AecA B2 :|
|: (3(FGA) |\
B2df (ba)gf | dfba gfed |\
e2ed c2cB | AcBG FDEC |\
B,DFA Bdfg | gfbf edcB |\
GBAc Bdce | dBcA B2 :|
